apps/16/hardware.svg

<?xml version="1.0" encoding="UTF-8"?>
<!-- Created with Inkscape (http://www.inkscape.org/) -->
<svg width="16" height="16" version="1.1" xmlns="http://www.w3.org/2000/svg" xmlns:cc="http://creativecommons.org/ns#" xmlns:dc="http://purl.org/dc/elements/1.1/" xmlns:rdf="http://www.w3.org/1999/02/22-rdf-syntax-ns#" xmlns:xlink="http://www.w3.org/1999/xlink">
	<defs>
		<radialGradient id="a" cx="290.59" cy="-95.005" r="7.254" gradientTransform="matrix(1.9943 0 0 1.93 -9970.1 5233.4)" gradientUnits="userSpaceOnUse">
			<stop stop-color="#213851" stop-opacity=".9059" offset="0"/>
			<stop stop-color="#27303a" stop-opacity="0" offset="1"/>
		</radialGradient>
		<radialGradient id="b" cx="7800.1" cy="-3926.4" r="6.5" gradientTransform="matrix(-7.7857e-6,1.8461,-2,-1.5122e-5,-7844.7,-14396)" gradientUnits="userSpaceOnUse">
			<stop stop-color="#ffffff" stop-opacity=".74858" offset="0"/>
			<stop stop-color="#ffffff" stop-opacity=".60511" offset="1"/>
		</radialGradient>
	</defs>
	<metadata>
		<rdf:RDF>
			<cc:Work rdf:about="">
				<dc:format>image/svg+xml</dc:format>
				<dc:type rdf:resource="http://purl.org/dc/dcmitype/StillImage"/>
				<dc:title/>
			</cc:Work>
		</rdf:RDF>
	</metadata>
	<g transform="translate(9398.6 -5036)">
		<g transform="matrix(.034547 0 0 .034547 -9257.2 5031.5)"></g>
		<path d="m-9397.6 5038v13l1 1 0.9998-2e-4v-2h1v2h1v-2h1v2h1v-2h1v2h1v-2h1v2h1v-2h1v2h1v-2h1v2l1.0002-0.9998v-13l-1-1h-12zm3.9998 1.9998h1v1h-1v1h-1v-1h1zm2 0h1v1h-1zm2 0h1v1h-1zm2 0h0.5 0.5v0.5 0.5h-0.5-0.5v-0.5zm0 2h1v1h-1zm-7 1h1v1h-1zm7 1h1v1h-1zm-7 1h1v1h-1zm7 1h1v1h-1v1h-1v-1h1zm-7 1h0.5 0.5v0.5 0.5h-0.5-0.5v-0.5zm2 0h1v1h-1zm2 0h1v1h-1z" color="#000000" fill="#090d11" fill-opacity=".76621" style="font-variant-east_asian:normal;paint-order:normal"/>
		<path d="m-9397.6 5038v13l1 1 0.9998-2e-4v-2h1v2h1v-2h1v2h1v-2h1v2h1v-2h1v2h1v-2h1v2h1v-2h1v2l1.0002-0.9998v-13l-1-1h-12zm3.9998 1.9998h1v1h-1v1h-1v-1h1zm2 0h1v1h-1zm2 0h1v1h-1zm2 0h0.5 0.5v0.5 0.5h-0.5-0.5v-0.5zm0 2h1v1h-1zm-7 1h1v1h-1zm7 1h1v1h-1zm-7 1h1v1h-1zm7 1h1v1h-1v1h-1v-1h1zm-7 1h0.5 0.5v0.5 0.5h-0.5-0.5v-0.5zm2 0h1v1h-1zm2 0h1v1h-1z" color="#000000" fill="url(#a)" fill-opacity=".7533" style="font-variant-east_asian:normal;paint-order:normal"/>
		<path transform="translate(-9398.6 5036)" d="m1.5938 0-0.3125 0.28125-1 1-0.28125 0.3125v0.40625 13 0.40625l0.28125 0.3125 1 1 0.3125 0.28125h0.40625 1 1 1 1 1 1 1 1 1 1 1v1.4062l1.7188-1.6875 1-1 0.28125-0.3125v-0.40625-13-0.40625l-0.28125-0.3125-1-1-0.3125-0.28125h-0.40625-12-0.40625zm0.40625 1h12l1 1v13l-1 1v-2h-1v2h-1v-2h-1v2h-1v-2h-1v2h-1v-2h-1v2h-1v-2h-1v2h-1v-2h-1v2h-1l-1-1v-13l1-1zm3 3v1h1v-1h-1zm0 1h-1v1h1v-1zm2-1v1h1v-1h-1zm2 0v1h1v-1h-1zm2 0v0.5 0.5h0.5 0.5v-0.5-0.5h-0.5-0.5zm0 2v1h1v-1h-1zm-7 1v1h1v-1h-1zm7 1v1h1v-1h-1zm-7 1v1h1v-1h-1zm7 1v1h1v-1h-1zm0 1h-1v1h1v-1zm-7 0v0.5 0.5h0.5 0.5v-0.5-0.5h-0.5-0.5zm2 0v1h1v-1h-1zm2 0v1h1v-1h-1z" color="#000000" fill="url(#b)" style="block-progression:tb;font-variant-east_asian:normal;paint-order:normal;text-indent:0;text-transform:none"/>
	</g>
</svg>

<?xml version="1.0" encoding="UTF-8" standalone="no"?>
<!-- Created with Inkscape (http://www.inkscape.org/) -->

<svg
   xmlns:dc="http://purl.org/dc/elements/1.1/"
   xmlns:cc="http://creativecommons.org/ns#"
   xmlns:rdf="http://www.w3.org/1999/02/22-rdf-syntax-ns#"
   xmlns:svg="http://www.w3.org/2000/svg"
   xmlns="http://www.w3.org/2000/svg"
   xmlns:sodipodi="http://sodipodi.sourceforge.net/DTD/sodipodi-0.dtd"
   xmlns:inkscape="http://www.inkscape.org/namespaces/inkscape"
   width="15.999998"
   height="15.999998"
   id="svg13094"
   version="1.1"
   inkscape:version="0.48.3.1 r9886"
   sodipodi:docname="device-notifier.svg">
  <sodipodi:namedview
     id="base"
     pagecolor="#ffffff"
     bordercolor="#666666"
     borderopacity="1.0"
     inkscape:pageopacity="0.0"
     inkscape:pageshadow="2"
     inkscape:zoom="40.96"
     inkscape:cx="5.5407453"
     inkscape:cy="6.9712627"
     inkscape:document-units="px"
     inkscape:current-layer="layer1"
     showgrid="true"
     inkscape:snap-bbox="true"
     inkscape:bbox-paths="true"
     inkscape:bbox-nodes="true"
     inkscape:snap-bbox-edge-midpoints="true"
     inkscape:snap-bbox-midpoints="true"
     inkscape:object-paths="true"
     inkscape:snap-intersection-paths="true"
     inkscape:object-nodes="true"
     inkscape:snap-smooth-nodes="true"
     inkscape:snap-midpoints="true"
     inkscape:snap-object-midpoints="true"
     inkscape:snap-center="true"
     showguides="true"
     inkscape:guide-bbox="true"
     inkscape:window-width="1920"
     inkscape:window-height="1033"
     inkscape:window-x="-10"
     inkscape:window-y="25"
     inkscape:window-maximized="1"
     inkscape:snap-global="true"
     fit-margin-top="0"
     fit-margin-left="0"
     fit-margin-right="0"
     fit-margin-bottom="0"
     showborder="true"
     inkscape:showpageshadow="false">
    <inkscape:grid
       type="xygrid"
       id="grid3131"
       empspacing="5"
       visible="true"
       enabled="true"
       snapvisiblegridlinesonly="true"
       originx="0.0002329375px"
       originy="10.999838px" />
  </sodipodi:namedview>
  <defs
     id="defs13096" />
  <metadata
     id="metadata13099">
    <rdf:RDF>
      <cc:Work
         rdf:about="">
        <dc:format>image/svg+xml</dc:format>
        <dc:type
           rdf:resource="http://purl.org/dc/dcmitype/StillImage" />
        <dc:title />
      </cc:Work>
    </rdf:RDF>
  </metadata>
  <g
     transform="translate(9398.6162,-5035.9922)"
     id="layer1"
     inkscape:groupmode="layer"
     inkscape:label="Camada 1">
    <g
       transform="matrix(0.03454656,0,0,0.03454656,-9257.2175,5031.4943)"
       id="22"
       inkscape:label="#g3373">
      <g
         id="g3829-5" />
    </g>
    <path
       sodipodi:nodetypes="cccccccccccccccccccccccccccccccccccccccccccccccccccccccccccccccccccccccccccccccccccccccccccccccccccccccccccc"
       inkscape:connector-curvature="0"
       id="path2987"
       d="m -9397.616,5037.9924 0,13 1,1 0.9998,-2e-4 0,-2 1,0 0,2 1,0 0,-2 1,0 0,2 1,0 0,-2 1,0 0,2 1,0 0,-2 1,0 0,2 1,0 0,-2 1,0 0,2 1,0 0,-2 1,0 0,2 1.0002,-0.9998 0,-13 -1,-1 -12,0 z m 3.9998,1.9998 1,0 0,1 -1,0 0,1 -1,0 0,-1 1,0 z m 2,0 1,0 0,1 -1,0 z m 2,0 1,0 0,1 -1,0 z m 2,0 0.5,0 0.5,0 0,0.5 0,0.5 -0.5,0 -0.5,0 0,-0.5 z m 0,2 1,0 0,1 -1,0 z m -7,1 1,0 0,1 -1,0 z m 7,1 1,0 0,1 -1,0 z m -7,1 1,0 0,1 -1,0 z m 7,1 1,0 0,1 -1,0 0,1 -1,0 0,-1 1,0 z m -7,1 0.5,0 0.5,0 0,0.5 0,0.5 -0.5,0 -0.5,0 0,-0.5 z m 2,0 1,0 0,1 -1,0 z m 2,0 1,0 0,1 -1,0 z"
       style="color:#000000;fill:#27303a;fill-opacity:0.753280819999999968;fill-rule:nonzero;stroke:none;stroke-width:3.36001492;marker:none;visibility:visible;display:inline;overflow:visible;enable-background:accumulate" />
    <path
       style="font-size:medium;font-style:normal;font-variant:normal;font-weight:normal;font-stretch:normal;text-indent:0;text-align:start;text-decoration:none;line-height:normal;letter-spacing:normal;word-spacing:normal;text-transform:none;direction:ltr;block-progression:tb;writing-mode:lr-tb;text-anchor:start;baseline-shift:baseline;color:#000000;fill:#f1f3f5;fill-opacity:0.90288714000000003;fill-rule:nonzero;stroke:none;stroke-width:2;marker:none;visibility:visible;display:inline;overflow:visible;enable-background:accumulate;font-family:Sans;-inkscape-font-specification:Sans"
       d="M 1.59375 0 L 1.28125 0.28125 L 0.28125 1.28125 L 0 1.59375 L 0 2 L 0 15 L 0 15.40625 L 0.28125 15.71875 L 1.28125 16.71875 L 1.59375 17 L 2 17 L 3 17 L 4 17 L 5 17 L 6 17 L 7 17 L 8 17 L 9 17 L 10 17 L 11 17 L 12 17 L 13 17 L 13 18.40625 L 14.71875 16.71875 L 15.71875 15.71875 L 16 15.40625 L 16 15 L 16 2 L 16 1.59375 L 15.71875 1.28125 L 14.71875 0.28125 L 14.40625 0 L 14 0 L 2 0 L 1.59375 0 z M 2 1 L 14 1 L 15 2 L 15 15 L 14 16 L 14 14 L 13 14 L 13 16 L 12 16 L 12 14 L 11 14 L 11 16 L 10 16 L 10 14 L 9 14 L 9 16 L 8 16 L 8 14 L 7 14 L 7 16 L 6 16 L 6 14 L 5 14 L 5 16 L 4 16 L 4 14 L 3 14 L 3 16 L 2 16 L 1 15 L 1 2 L 2 1 z M 5 4 L 5 5 L 6 5 L 6 4 L 5 4 z M 5 5 L 4 5 L 4 6 L 5 6 L 5 5 z M 7 4 L 7 5 L 8 5 L 8 4 L 7 4 z M 9 4 L 9 5 L 10 5 L 10 4 L 9 4 z M 11 4 L 11 4.5 L 11 5 L 11.5 5 L 12 5 L 12 4.5 L 12 4 L 11.5 4 L 11 4 z M 11 6 L 11 7 L 12 7 L 12 6 L 11 6 z M 4 7 L 4 8 L 5 8 L 5 7 L 4 7 z M 11 8 L 11 9 L 12 9 L 12 8 L 11 8 z M 4 9 L 4 10 L 5 10 L 5 9 L 4 9 z M 11 10 L 11 11 L 12 11 L 12 10 L 11 10 z M 11 11 L 10 11 L 10 12 L 11 12 L 11 11 z M 4 11 L 4 11.5 L 4 12 L 4.5 12 L 5 12 L 5 11.5 L 5 11 L 4.5 11 L 4 11 z M 6 11 L 6 12 L 7 12 L 7 11 L 6 11 z M 8 11 L 8 12 L 9 12 L 9 11 L 8 11 z "
       transform="translate(-9398.6162,5035.9922)"
       id="rect3016" />
  </g>
</svg>
